X:98
T:Harvest song - Rickards
%%VWML:SBG-1-2-92-0
F:http://www.vwml.org/record/SBG/1/2/92
Z:Original Sibelius transcriptions by M. & S. Graebe
M:4/4
I:linebreak $
K:F
V:1 treble nm="P1"
V:1
 FG | A2 AA A2 cd | dc BG G2 FA | c2 AF Bd cA | GF FF F2 |$ fe | d2 dc c2 c2 F | G2 AA A2 FA | %8
 c2 cA Bd BG | GF FF F2 x2 | %10
T:Harvest song - Arscott
F:http://www.vwml.org/record/SBG/1/2/92
Z:Original Sibelius transcriptions by M. & S. Graebe
M:3/4
I:linebreak $
K:Eb
V:1 treble nm="P1"
V:1
 E | E F F | E G G | F A A | (A G) G | E E E | E G B | E :: B/A/ | G G A |$ B c d | e d c | c B B | %13
w: |||||||||||||
 G3/2 F/ E | B2 B/A/ | G F A/G/ |"^chorus" F3 | G |$ G F G | A z A | G F G/A/ | B2 c | B G E | %23
w: ||||It's|all in a|row It|is all of a|row And~to-|night we will|
 (E G) B | A G B | E3 | %26
w: sing _ Boys|All of a|row|
T:Harvest song - Arscott - variation
F:http://www.vwml.org/record/SBG/1/2/92
Z:Original Sibelius transcriptions by M. & S. Graebe
M:3/4
I:linebreak $
K:Eb
V:1 treble nm="P1" snm="Voice"
V:1
 z2 c | B G E | A A B | E :: B/A/ | G A B | c d e | g z z | %8

